X: 1963
T: Yandım Deminden
C: Denizoğlu Ali Bey
O: Turkey
F: http://compmusic.upf.edu/node/140
N: hisarbuselik--sarki--aksak--yandim_deminden--denizoglu_ali_bey
N: makam= hisarbuselik
N: form= sarki
N: usul= aksak = 9/8
M: 9/8
L: 1/16
K: C _1/4B   
Q: 1/4=288
%%MIDI tuningsystem comma53
e8 e^def .e4 z2 | e^d efef edcd c=BcB A^GA2  | 
w:  ARANAĞME  |   | 
e8 e^def .e4 z2 | e2 f2^g2 a2{=b}g2 b2a4z2  | \
w:   |   | 
c'8 c'2=b2 b4 a2 | =b2 a4 c'2b2 a2^g4z2  | 
w:   |   | 
.f8 e4 ^d4 e2 | f2 ^ga=bc' baga gfe4z2  | \
w:   |   | 
.g8 a2g2 f4 e2 | 
w:   | 
e2 d4 f2e2 d2c4z2  | d2c2 d2f2 e2d2 c2=B2 A2 | \
w:   |   | 
=B2 A2{B}^G2 A2B4BA Bcd^d  | 
w:   | 
.e4 z4 efe2 d4 c2 | g2 g4 a2a2 g2f2 e2d2  | \
w:   |   | 
c2e2 d2e2 c2d2 c2=B2 A2 | 
w:   | 
c2 =B2A2 ^G2A4z6  | e8 c'2=b2 a2^g2 f2 | \
w:   |  Yan dım   | 
^g2 f2{g}f2 e2{f}e2 ^d2c2 =B2{c}A2  | 
w:  de *  *  min *  *  den   | 
e8 c'2=b2 a2^g2 f2 | ^g2 a2=b2 g2a4{b}a2 g2f2  | \
w:  ağ yâr   |  e *  lin *  den   *  SAZ  | 
e8 c'2=b2 a2^g2 f2 | ^g2 f2{g}f2 e2{f}e2 ^d2c2 =B2{c}A2  | 
w:  Yan dım   |  de *  *  min *  *  den   | 
e8 c'2=b2 a2^g2 f2 | ^g2 a2=b2 g2a4ag fe^df  | \
w:  ağ yâr   |  e *  lin *  den   SAZ  | 
e8 e4 d4 c2 | 
w:  Dil ber   | 
g2 g4 a2a2 g2f2 {g}e2{f}d2  | c2e2 d2e2 c2d2 c2=B2 A2 | \
w:  di lin *  den   |  ağ *  *  *  yâr   | 
c2 =B2A2 {B}^G2A2 B2c2 d2e2  | 
w:  e *  lin *  *  den    | 
e8 e4 d4 c2 | g2 g4 a2a2 g2f2 {g}e2{f}d2  | \
w:  Dil ber   |  di lin *  den   | 
c2e2 d2e2 c2d2 c2=B2 A2 | 
w:  ağ *  *  *  yâr   | 
c2 =B2A2 {B}^G2A8z2  | e8 c'2=b2 a2^g2 f2 | \
w:  e *  lin *  *  den    |  O  yâr  | 
^g2 f2{g}f2 e2{f}e2 ^d2c2 =B2{c}A2  | 
w:  la  *  *  soh *  *  bet   | 
e8 c'2=b2 a2^g2 f2 | ^g2 a2=b2 g2a4{b}a2 g2f2  | \
w:  câ nı  |  ma  *  min *  net   *  SAZ  | 
e8 c'2=b2 a2^g2 f2 | ^g2 f2{g}f2 e2{f}e2 ^d2c2 =B2{c}A2  | 
w:  O  yâr  |  la  *  *  soh *  *  bet   | 
e8 c'2=b2 a2^g2 f2 | ^g2 a2=b2 g2a4ag fe^df  | \
w:  câ nı  |  ma  *  min *  net   SAZ  | 
e8 e4 d4 c2 | 
w:  Dü şer   | 
g2 g4 a2a2 g2f2 {g}e2{f}d2  | c2e2 d2e2 c2d2 c2=B2 A2 | \
w:  mi  fır *  sat   |  ağ *  *  *  yâr   | 
c2 =B2A2 {B}^G2A2 B2c2 d2e2  | 
w:  e *  lin *  *  den    | 
e8 e4 d4 c2 | g2 g4 a2a2 g2f2 {g}e2{f}d2  | \
w:  Dü şer   |  mi  fır *  sat   | 
c2e2 d2e2 c2d2 c2=B2 A2 | 
w:  ağ *  *  *  yâr   | 
c2 =B2A2 {B}^G2A8z2  | e8 e^def .e4 z2 | \
w:  e *  lin *  *  den    |  ARANAĞME  | 
e^d efef edcd c=BcB A^GA2  | 
w:   | 
e8 e^def .e4 z2 | e2 f2^g2 a2{=b}g2 b2a4z2  | \
w:   |   | 
c'8 c'2=b2 b4 a2 | =b2 a4 c'2b2 a2^g4z2  | 
w:   |   | 
.f8 e4 ^d4 e2 | f2 ^ga=bc' baga gfe4z2  | \
w:   |   | 
.g8 a2g2 f4 e2 | 
w:   | 
e2 d4 f2e2 d2c4z2  | d2c2 d2f2 e2d2 c2=B2 A2 | \
w:   |   | 
=B2 A2{B}^G2 A2B4BA Bcd^d  | 
w:   | 
.e4 z4 efe2 d4 c2 | g2 g4 a2a2 g2f2 e2d2  | \
w:   |   | 
c2e2 d2e2 c2d2 c2=B2 A2 | 
w:   | 
c2 =B2A2 ^G2A4z6  | e8 c'2=b2 a2^g2 f2 | \
w:   |  Yan dım   | 
^g2 f2{g}f2 e2{f}e2 ^d2c2 =B2{c}A2  | 
w:  de *  *  min *  *  den   | 
e8 c'2=b2 a2^g2 f2 | ^g2 a2=b2 g2a4{b}a2 g2f2  | \
w:  ağ yâr   |  e *  lin *  den   *  SAZ  | 
e8 c'2=b2 a2^g2 f2 | ^g2 f2{g}f2 e2{f}e2 ^d2c2 =B2{c}A2  | 
w:  Yan dım   |  de *  *  min *  *  den   | 
e8 c'2=b2 a2^g2 f2 | ^g2 a2=b2 g2a4ag fe^df  | \
w:  ağ yâr   |  e *  lin *  den   SAZ  | 
e8 e4 d4 c2 | 
w:  Dil ber   | 
g2 g4 a2a2 g2f2 {g}e2{f}d2  | c2e2 d2e2 c2d2 c2=B2 A2 | \
w:  di lin *  den   |  ağ *  *  *  yâr   | 
c2 =B2A2 {B}^G2A2 B2c2 d2e2  | 
w:  e *  lin *  *  den    | 
e8 e4 d4 c2 | g2 g4 a2a2 g2f2 {g}e2{f}d2  | \
w:  Dil ber   |  di lin *  den   | 
c2e2 d2e2 c2d2 c2=B2 A2 | 
w:  ağ *  *  *  yâr   | 
c2 =B2A2 {B}^G2A8z2  | e8 c'2=b2 a2^g2 f2 | \
w:  e *  lin *  *  den    |  O  yâr  | 
^g2 f2{g}f2 e2{f}e2 ^d2c2 =B2{c}A2  | 
w:  la  *  *  soh *  *  bet   | 
e8 c'2=b2 a2^g2 f2 | ^g2 a2=b2 g2a4{b}a2 g2f2  | \
w:  câ nı  |  ma  *  min *  net   *  SAZ  | 
e8 c'2=b2 a2^g2 f2 | ^g2 f2{g}f2 e2{f}e2 ^d2c2 =B2{c}A2  | 
w:  O  yâr  |  la  *  *  soh *  *  bet   | 
e8 c'2=b2 a2^g2 f2 | ^g2 a2=b2 g2a4ag fe^df  | \
w:  câ nı  |  ma  *  min *  net   SAZ  | 
e8 e4 d4 c2 | 
w:  Dü şer   | 
g2 g4 a2a2 g2f2 {g}e2{f}d2  | c2e2 d2e2 c2d2 c2=B2 A2 | \
w:  mi  fır *  sat   |  ağ *  *  *  yâr   | 
c2 =B2A2 {B}^G2A2 B2c2 d2e2  | 
w:  e *  lin *  *  den    | 
e8 e4 d4 c2 | g2 g4 a2a2 g2f2 {g}e2{f}d2  | \
w:  Dü şer   |  mi  fır *  sat   | 
c2e2 d2e2 c2d2 c2=B2 A2 | 
w:  ağ *  *  *  yâr   | 
c2 =B2A2 {B}^G2A8z2  | |


